packages/kaspersky-hexa-ui-icons/src/iconsSVGs/24/Destinations.svg

<svg width="24" height="24" viewBox="0 0 24 24" fill="none" xmlns="http://www.w3.org/2000/svg">
<path d="M18 1C17.4477 1 17 1.44772 17 2V2.17203C15.9534 2.17203 15.0945 2.97596 15.0073 4C15.0025 4.0567 15 4.11407 15 4.17202V6C14.4477 6 14 6.44772 14 7C14 7.55228 14.4477 8 15 8H17C17 8.55228 17.4477 9 18 9C18.5523 9 19 8.55228 19 8H21C21.5523 8 22 7.55228 22 7C22 6.44772 21.5523 6 21 6V4.17203C21 3.06746 20.1046 2.17203 19 2.17203V2C19 1.44772 18.5523 1 18 1Z" fill="black"/>
<path d="M7 2H13.6405C13.2645 2.58045 13.0348 3.26454 13.0036 4H7C6.44772 4 6 4.44772 6 5V7C6 7.55228 6.44772 8 7 8H12.1707C12.5481 9.06783 13.513 9.87537 14.6769 10H7C6.44772 10 6 10.4477 6 11V13C6 13.5523 6.44772 14 7 14H17C17.5523 14 18 13.5523 18 13V11C18.73 11 19.3991 10.7393 19.9193 10.3058C19.9721 10.5286 20 10.7611 20 11V13C20 14.6569 18.6569 16 17 16H7C5.34315 16 4 14.6569 4 13V11C4 10.2316 4.28885 9.53076 4.7639 9C4.28885 8.46925 4 7.76836 4 7V5C4 3.34315 5.34315 2 7 2Z" fill="black"/>
<path d="M10 6C10 6.55228 9.55228 7 9 7C8.44772 7 8 6.55228 8 6C8 5.44772 8.44772 5 9 5C9.55228 5 10 5.44772 10 6Z" fill="black"/>
<path d="M9 13C9.55228 13 10 12.5523 10 12C10 11.4477 9.55228 11 9 11C8.44772 11 8 11.4477 8 12C8 12.5523 8.44772 13 9 13Z" fill="black"/>
<path d="M16 17C15.4477 17 15 17.4477 15 18V19.6337C14.6176 19.4126 14.1201 19.4657 13.7929 19.7929C13.4024 20.1834 13.4024 20.8166 13.7929 21.2071L15.2929 22.7071C15.6834 23.0976 16.3166 23.0976 16.7071 22.7071L18.2071 21.2071C18.5976 20.8166 18.5976 20.1834 18.2071 19.7929C17.8799 19.4657 17.3824 19.4126 17 19.6337V18C17 17.4477 16.5523 17 16 17Z" fill="black"/>
<path d="M7 20.3663V22C7 22.5523 7.44772 23 8 23C8.55229 23 9 22.5523 9 22V20.3663C9.38243 20.5873 9.87992 20.5343 10.2071 20.2071C10.5976 19.8166 10.5976 19.1834 10.2071 18.7929L8.70711 17.2929C8.31658 16.9024 7.68342 16.9024 7.29289 17.2929L5.79289 18.7929C5.40237 19.1834 5.40237 19.8166 5.79289 20.2071C6.12008 20.5343 6.61757 20.5873 7 20.3663Z" fill="black"/>
</svg>

<svg xmlns="http://www.w3.org/2000/svg" width="24" height="24" fill="none" viewBox="0 0 24 24"><path d="M0 24h24V0H0z"/><path fill="#000" fill-rule="evenodd" d="M18 1c-.5523 0-1 .4477-1 1v.172c-1.0466 0-1.9055.804-1.9927 1.828A2 2 0 0 0 15 4.172V6c-.5523 0-1 .4477-1 1s.4477 1 1 1h2c0 .5523.4477 1 1 1s1-.4477 1-1h2c.5523 0 1-.4477 1-1s-.4477-1-1-1V4.172c0-1.1045-.8954-2-2-2V2c0-.5523-.4477-1-1-1M7 2h6.6405a3.98 3.98 0 0 0-.6369 2H7c-.5523 0-1 .4477-1 1v2c0 .5523.4477 1 1 1h5.1707c.3774 1.0678 1.3423 1.8754 2.5062 2H7c-.5523 0-1 .4477-1 1v2c0 .5523.4477 1 1 1h10c.5523 0 1-.4477 1-1v-2c.73 0 1.3991-.2607 1.9193-.6942.0528.2228.0807.4553.0807.6942v2c0 1.6569-1.3431 3-3 3H7c-1.6569 0-3-1.3431-3-3v-2a2.99 2.99 0 0 1 .7639-2A2.99 2.99 0 0 1 4 7V5c0-1.6569 1.3431-3 3-3m3 4c0 .5523-.4477 1-1 1s-1-.4477-1-1 .4477-1 1-1 1 .4477 1 1m-1 7c.5523 0 1-.4477 1-1s-.4477-1-1-1-1 .4477-1 1 .4477 1 1 1m6 5c0-.5523.4477-1 1-1s1 .4477 1 1v1.6337c.3824-.2211.8799-.168 1.2071.1592.3905.3905.3905 1.0237 0 1.4142l-1.5 1.5c-.3905.3905-1.0237.3905-1.4142 0l-1.5-1.5c-.3905-.3905-.3905-1.0237 0-1.4142.3272-.3272.8247-.3803 1.2071-.1592zm-8 2.3663V22c0 .5523.4477 1 1 1s1-.4477 1-1v-1.6337c.3824.221.88.168 1.2071-.1592.3905-.3905.3905-1.0237 0-1.4142l-1.5-1.5c-.3905-.3905-1.0237-.3905-1.4142 0l-1.5 1.5c-.3905.3905-.3905 1.0237 0 1.4142.3272.3272.8247.3802 1.2071.1592"/></svg>
